R/raincoat.com logo.svg

<?xml version="1.0" ?>
<svg xmlns="http://www.w3.org/2000/svg" role="img" viewBox="-10.09 -10.09 524.68 120.68">
	<path fill="#788BF7" d="M122.742 44.7654c-.514-.6541-1.169-1.355-1.87-2.1494-2.286-2.1752-4.927-3.945-7.809-5.2333-3.606-1.5873-7.516-2.3687-11.456-2.2896-5.5535-.0676-11.0196 1.3868-15.8044 4.2054-4.6507 2.8109-8.449 6.8326-10.9884 11.6348-2.8081 5.2568-4.2245 11.1439-4.1148 17.1018-.0994 5.9568 1.3164 11.8412 4.1148 17.1018 2.5147 4.8075 6.3197 8.8202 10.9884 11.5881a30.4063 30.4063 0 0 0 15.8044 4.205c4.097.033 8.141-.929 11.784-2.8032a26.52865 26.52865 0 0 0 7.762-5.7941l1.777-2.1027v8.7378h17.347V36.8687h-17.535v7.8967zm-8.416 38.5959a18.05956 18.05956 0 0 1-8.908 2.3495c-3.122 0-6.1917-.8095-8.9075-2.3495-2.7037-1.5544-4.949-3.7944-6.5089-6.4937-1.56-2.6993-2.3794-5.7622-2.3753-8.8793-.0006-3.11.8207-6.1651 2.3807-8.8563 1.56-2.6912 3.8035-4.923 6.5035-6.4698 2.7083-1.5626 5.7805-2.3852 8.9075-2.3852 3.127 0 6.2.8226 8.908 2.3852a17.6209 17.6209 0 0 1 6.536 6.458c1.569 2.6924 2.395 5.7525 2.395 8.8681-.006 3.1207-.834 6.1849-2.402 8.8837-1.568 2.6989-3.82 4.9371-6.529 6.4893zm317.496-38.5959c-.514-.6541-1.169-1.355-1.87-2.1494-2.287-2.1752-4.927-3.945-7.809-5.2333-3.606-1.5873-7.516-2.3687-11.456-2.2896-5.554-.0676-11.02 1.3868-15.805 4.2054-4.65 2.8109-8.449 6.8326-10.988 11.6348-2.794 5.2604-4.194 11.1477-4.068 17.1018-.114 5.9527 1.286 11.8369 4.068 17.1018 2.515 4.8075 6.32 8.8202 10.988 11.5881a30.40765 30.40765 0 0 0 15.805 4.205c4.097.033 8.141-.929 11.783-2.8032a26.5213 26.5213 0 0 0 7.716-5.6072l1.776-2.1027v8.7378h17.395v-62.286h-17.535v7.8967zm-8.417 38.5959c-2.715 1.54-5.785 2.3495-8.907 2.3495-3.123 0-6.192-.8095-8.908-2.3495-2.697-1.5617-4.937-3.8033-6.496-6.5009-1.559-2.6977-2.383-5.7569-2.388-8.8721-.001-3.11.821-6.1651 2.381-8.8563 1.56-2.6912 3.803-4.923 6.503-6.4698 2.708-1.5626 5.781-2.3852 8.908-2.3852s6.199.8226 8.907 2.3852c2.712 1.5371 4.968 3.7656 6.537 6.458a17.60142 17.60142 0 0 1 2.394 8.8681 17.73984 17.73984 0 0 1-2.401 8.8837c-1.568 2.6989-3.82 4.9371-6.53 6.4893zM166.089 1.54384c-1.668-.99668-3.573-1.52908-5.517-1.54196-1.399-.01437-2.786.26048-4.073.80727-1.288.5468-2.448 1.35373-3.409 2.37011a10.28629 10.28629 0 0 0-2.353 3.45952c-.539 1.30218-.804 2.70119-.78 4.11012-.017 1.3941.252 2.7769.791 4.0629a10.1917 10.1917 0 0 0 2.342 3.4133 10.10189 10.10189 0 0 0 3.413 2.3488c1.287.5388 2.673.805 4.069.7819a10.5722 10.5722 0 0 0 4.204-.7647c1.335-.5383 2.546-1.3434 3.558-2.366.995-.9738 1.785-2.1372 2.323-3.4212.539-1.2841.814-2.6629.81-4.055.022-1.91157-.497-3.79057-1.497-5.42023-.971-1.53855-2.282-2.8335-3.834-3.78483m3.086 35.32496h-17.628v62.2861h17.628V36.8688zm61.255.7943c-3.505-1.589-7.294-2.4574-11.142-2.5538-3.848-.0963-7.675.5815-11.256 1.9931a26.64736 26.64736 0 0 0-7.715 4.6726c-.733.6724-1.405 1.4072-2.011 2.1961v-7.1024h-17.675v62.2861h17.675V65.4184c-.057-2.9819.703-5.9227 2.198-8.5041a17.1982 17.1982 0 0 1 5.705-5.8875 14.03368 14.03368 0 0 1 7.294-2.1494c1.723-.0784 3.444.2009 5.053.8202 1.61.6192 3.073 1.565 4.299 2.7777 2.662 3.1747 3.957 7.2744 3.6 11.4012v35.5119h17.769V60.7458c.215-5.1991-1.137-10.3431-3.881-14.7655-2.428-3.674-5.872-6.5637-9.913-8.3172zm65.276 44.6235c-1.277.9368-2.639 1.7503-4.069 2.4298a17.4958 17.4958 0 0 1-8.089 1.6354c-2.835-.0043-5.615-.7797-8.042-2.2429-2.611-1.5478-4.783-3.7349-6.313-6.3547a18.68037 18.68037 0 0 1-2.478-9.7658c-.076-3.3989.764-6.7556 2.431-9.7191a17.99834 17.99834 0 0 1 6.36-6.3547c2.427-1.4632 5.207-2.2385 8.042-2.2429 1.999-.0263 3.989.2736 5.892.8878 1.387.5058 2.706 1.1807 3.928 2.0092 1.262.8878 1.776 1.3551 2.01 1.542l.795.7944 8.697-12.6161-.561-.5607c-1.226-.9996-2.559-1.8614-3.974-2.57a35.11568 35.11568 0 0 0-7.248-2.8036c-3.229-.8801-6.566-1.3047-9.913-1.2616-5.833-.0519-11.598 1.2603-16.833 3.8316-5.017 2.5399-9.215 6.4432-12.111 11.261-3.203 5.3767-4.824 11.5471-4.676 17.8027-.136 6.2395 1.484 12.3918 4.676 17.756 2.945 4.8401 7.189 8.7578 12.251 11.3077 5.222 2.6126 10.993 3.9419 16.833 3.8779 6.005.059 11.941-1.2678 17.348-3.8779 1.358-.6493 2.656-1.4154 3.881-2.2896l.655-.5607-8.557-12.6161-.935.7009zm62.751-42.848c-5.239-2.9293-11.158-4.4281-17.161-4.3455-6.08-.1061-12.08 1.3929-17.394 4.3455-5.091 2.8078-9.324 6.9416-12.251 11.9619-2.906 5.1587-4.391 10.9956-4.302 16.9149-.089 5.8749 1.397 11.6666 4.302 16.7747 2.905 4.8884 7.072 8.9068 12.064 11.6349 5.359 2.808 11.32 4.275 17.371 4.275 6.051 0 12.012-1.467 17.371-4.275a31.4129 31.4129 0 0 0 11.83-11.6349c2.905-5.1081 4.391-10.8998 4.302-16.7747.089-5.9193-1.396-11.7562-4.302-16.9149-2.806-4.9451-6.893-9.0446-11.83-11.8684m-1.871 37.381c-1.891 3.1907-4.737 5.7076-8.136 7.1958-4.057 1.8301-8.649 2.0932-12.889.7384s-7.827-4.2314-10.069-8.0744l-.328-.5607c-1.48-2.5816-2.259-5.5053-2.259-8.4808 0-2.9756.779-5.8993 2.259-8.4809 2.232-3.8801 5.782-6.8313 10.007-8.3172 3.919-1.3038 8.167-1.2214 12.032.2334s7.112 4.1935 9.196 7.7568c1.553 2.6677 2.371 5.6986 2.371 8.7845 0 3.0859-.818 6.1168-2.371 8.7845m130.177-39.6237V12.0105h-17.534v24.8583h-11.41v15.0926h11.69v31.2131c-.041 2.0685.227 4.1317.795 6.1212.823 2.6282 2.342 4.9854 4.395 6.822 3.726 3.1891 8.518 4.8573 13.42 4.6723H505V84.109h-11.269c-.931.0062-1.855-.1717-2.717-.5236-.862-.3518-1.646-.8705-2.306-1.5263-.661-.6558-1.185-1.4357-1.543-2.2948a7.04715 7.04715 0 0 1-.542-2.7109v-25.092H505V36.8688h-18.377zM46.7593 57.7094a25.54259 25.54259 0 0 0 7.575-3.1774c3.6302-2.3455 6.6191-5.5572 8.6972-9.3453 2.5931-4.7478 3.8533-10.108 3.6472-15.5131.151-5.6389-1.2393-11.2122-4.0213-16.1205-2.5757-4.31505-6.3203-7.81403-10.8014-10.09287-4.6708-2.3366-9.8334-3.5222-15.0565-3.45773H0v99.153h18.0023V58.5504h10.0533l.9819 1.7756 21.369 38.8295h20.387L46.7593 57.7094zm-3.2264-17.6625c-3.6248 2.3495-7.8866 3.5244-12.2042 3.3642h-6.219c-1.8769.0001-3.6777-.7418-5.0092-2.0636-1.3316-1.3219-2.0858-3.1165-2.0982-4.992V15.2352H31.469c4.3241-.1054 8.5789 1.1001 12.2041 3.4578 1.6264 1.249 2.9087 2.8904 3.7266 4.7702a12.09577 12.09577 0 0 1 .9494 5.9768 11.95551 11.95551 0 0 1-1.0289 5.9288 11.96423 11.96423 0 0 1-3.7873 4.6781z"/>
</svg>

<?xml version="1.0" ?>
<svg xmlns="http://www.w3.org/2000/svg" viewBox="0 0 505 101" fill="none">
	<path d="M122.742 44.7654C122.228 44.1113 121.573 43.4104 120.872 42.616C118.586 40.4408 115.945 38.671 113.063 37.3827C109.457 35.7954 105.547 35.014 101.607 35.0931C96.0535 35.0255 90.5874 36.4799 85.8026 39.2985C81.1519 42.1094 77.3536 46.1311 74.8142 50.9333C72.0061 56.1901 70.5897 62.0772 70.6994 68.0351C70.6 73.9919 72.0158 79.8763 74.8142 85.1369C77.3289 89.9444 81.1339 93.9571 85.8026 96.725C90.5874 99.5435 96.0535 100.998 101.607 100.93C105.704 100.963 109.748 100.001 113.391 98.1268C116.312 96.6882 118.943 94.7241 121.153 92.3327L122.93 90.23V98.9678H140.277V36.8687H122.742V44.7654ZM114.326 83.3613C111.61 84.9013 108.541 85.7108 105.418 85.7108C102.296 85.7108 99.2263 84.9013 96.5105 83.3613C93.8068 81.8069 91.5615 79.5669 90.0016 76.8676C88.4416 74.1683 87.6222 71.1054 87.6263 67.9883C87.6257 64.8783 88.447 61.8232 90.007 59.132C91.567 56.4408 93.8105 54.209 96.5105 52.6622C99.2188 51.0996 102.291 50.277 105.418 50.277C108.545 50.277 111.618 51.0996 114.326 52.6622C117.038 54.1993 119.293 56.4278 120.862 59.1202C122.431 61.8126 123.257 64.8727 123.257 67.9883C123.251 71.109 122.423 74.1732 120.855 76.872C119.287 79.5709 117.035 81.8091 114.326 83.3613Z" fill="#788BF7"/>
	<path d="M431.822 44.7654C431.308 44.1113 430.653 43.4104 429.952 42.616C427.665 40.4408 425.025 38.671 422.143 37.3827C418.537 35.7954 414.627 35.014 410.687 35.0931C405.133 35.0255 399.667 36.4799 394.882 39.2985C390.232 42.1094 386.433 46.1311 383.894 50.9333C381.1 56.1937 379.7 62.081 379.826 68.0351C379.712 73.9878 381.112 79.872 383.894 85.1369C386.409 89.9444 390.214 93.9571 394.882 96.725C399.667 99.5435 405.133 100.998 410.687 100.93C414.784 100.963 418.828 100.001 422.47 98.1268C425.36 96.7393 427.974 94.8395 430.186 92.5196L431.962 90.4169V99.1547H449.357V36.8687H431.822V44.7654ZM423.405 83.3613C420.69 84.9013 417.62 85.7108 414.498 85.7108C411.375 85.7108 408.306 84.9013 405.59 83.3613C402.893 81.7996 400.653 79.558 399.094 76.8604C397.535 74.1627 396.711 71.1035 396.706 67.9883C396.705 64.8783 397.527 61.8232 399.087 59.132C400.647 56.4408 402.89 54.209 405.59 52.6622C408.298 51.0996 411.371 50.277 414.498 50.277C417.625 50.277 420.697 51.0996 423.405 52.6622C426.117 54.1993 428.373 56.4278 429.942 59.1202C431.511 61.8126 432.337 64.8727 432.336 67.9883C432.331 71.109 431.503 74.1732 429.935 76.872C428.367 79.5709 426.115 81.8091 423.405 83.3613Z" fill="#788BF7"/>
	<path d="M166.089 1.54384C164.421 0.547158 162.516 0.0147608 160.572 0.00187818C159.173 -0.012487 157.786 0.262359 156.499 0.809154C155.211 1.35595 154.051 2.16288 153.09 3.17926C152.077 4.15905 151.276 5.3366 150.737 6.63878C150.198 7.94096 149.933 9.33997 149.957 10.7489C149.94 12.143 150.209 13.5258 150.748 14.8118C151.287 16.0978 152.084 17.2595 153.09 18.2251C154.053 19.2353 155.215 20.035 156.503 20.5739C157.79 21.1127 159.176 21.3789 160.572 21.3558C162.011 21.3897 163.441 21.1295 164.776 20.5911C166.111 20.0528 167.322 19.2477 168.334 18.2251C169.329 17.2513 170.119 16.0879 170.657 14.8039C171.196 13.5198 171.471 12.141 171.467 10.7489C171.489 8.83733 170.97 6.95833 169.97 5.32867C168.999 3.79012 167.688 2.49517 166.136 1.54384" fill="#788BF7"/>
	<path d="M169.222 36.8688H151.594V99.1549H169.222V36.8688Z" fill="#788BF7"/>
	<path d="M230.477 37.6631C226.972 36.0741 223.183 35.2057 219.335 35.1093C215.487 35.013 211.66 35.6908 208.079 37.1024C205.26 38.2105 202.651 39.7907 200.364 41.775C199.631 42.4474 198.959 43.1822 198.353 43.9711V36.8687H180.678V99.1548H198.353V65.4184C198.296 62.4365 199.056 59.4957 200.551 56.9143C201.95 54.521 203.907 52.5012 206.256 51.0268C208.443 49.6528 210.967 48.909 213.55 48.8774C215.273 48.799 216.994 49.0783 218.603 49.6976C220.213 50.3168 221.676 51.2626 222.902 52.4753C225.564 55.65 226.859 59.7497 226.502 63.8765V99.3884H244.271V60.7458C244.486 55.5467 243.134 50.4027 240.39 45.9803C237.962 42.3063 234.518 39.4166 230.477 37.6631Z" fill="#788BF7"/>
	<path d="M295.753 82.2866C294.476 83.2234 293.114 84.0369 291.684 84.7164C289.157 85.8986 286.384 86.4594 283.595 86.3518C280.76 86.3475 277.98 85.5721 275.553 84.1089C272.942 82.5611 270.77 80.374 269.24 77.7542C267.535 74.787 266.678 71.409 266.762 67.9884C266.686 64.5895 267.526 61.2328 269.193 58.2693C270.741 55.6476 272.929 53.4611 275.553 51.9146C277.98 50.4514 280.76 49.6761 283.595 49.6717C285.594 49.6454 287.584 49.9453 289.487 50.5595C290.874 51.0653 292.193 51.7402 293.415 52.5687C294.677 53.4565 295.191 53.9238 295.425 54.1107L296.22 54.9051L304.917 42.289L304.356 41.7283C303.13 40.7287 301.797 39.8669 300.382 39.1583C298.077 37.9584 295.646 37.0181 293.134 36.3547C289.905 35.4746 286.568 35.05 283.221 35.0931C277.388 35.0412 271.623 36.3534 266.388 38.9247C261.371 41.4646 257.173 45.3679 254.277 50.1857C251.074 55.5624 249.453 61.7328 249.601 67.9884C249.465 74.2279 251.085 80.3802 254.277 85.7444C257.222 90.5845 261.466 94.5022 266.528 97.0521C271.75 99.6647 277.521 100.994 283.361 100.93C289.366 100.989 295.302 99.6622 300.709 97.0521C302.067 96.4028 303.365 95.6367 304.59 94.7625L305.245 94.2018L296.688 81.5857L295.753 82.2866Z" fill="#788BF7"/>
	<path d="M358.504 39.4386C353.265 36.5093 347.346 35.0105 341.343 35.0931C335.263 34.987 329.263 36.486 323.949 39.4386C318.858 42.2464 314.625 46.3802 311.698 51.4005C308.792 56.5592 307.307 62.3961 307.396 68.3154C307.307 74.1903 308.793 79.982 311.698 85.0901C314.603 89.9785 318.77 93.9969 323.762 96.725C329.121 99.533 335.082 101 341.133 101C347.184 101 353.145 99.533 358.504 96.725C363.42 93.9764 367.505 89.9579 370.334 85.0901C373.239 79.982 374.725 74.1903 374.636 68.3154C374.725 62.3961 373.24 56.5592 370.334 51.4005C367.528 46.4554 363.441 42.3559 358.504 39.5321M356.633 76.9131C354.742 80.1038 351.896 82.6207 348.497 84.1089C344.44 85.939 339.848 86.2021 335.608 84.8473C331.368 83.4925 327.781 80.6159 325.539 76.7729L325.211 76.2122C323.731 73.6306 322.952 70.7069 322.952 67.7314C322.952 64.7558 323.731 61.8321 325.211 59.2505C327.443 55.3704 330.993 52.4192 335.218 50.9333C339.137 49.6295 343.385 49.7119 347.25 51.1667C351.115 52.6215 354.362 55.3602 356.446 58.9235C357.999 61.5912 358.817 64.6221 358.817 67.708C358.817 70.7939 357.999 73.8248 356.446 76.4925" fill="#788BF7"/>
	<path d="M486.623 36.8688V12.0105H469.089V36.8688H457.679V51.9614H469.369V83.1745C469.328 85.243 469.596 87.3062 470.164 89.2957C470.987 91.9239 472.506 94.2811 474.559 96.1177C478.285 99.3068 483.077 100.975 487.979 100.79H505V84.109H493.731C492.8 84.1152 491.876 83.9373 491.014 83.5854C490.152 83.2336 489.368 82.7149 488.708 82.0591C488.047 81.4033 487.523 80.6234 487.165 79.7643C486.807 78.9052 486.623 77.9839 486.623 77.0534V51.9614H505V36.8688H486.623Z" fill="#788BF7"/>
	<path d="M46.7593 57.7094C49.4393 57.0658 51.9975 55.9928 54.3343 54.532C57.9645 52.1865 60.9534 48.9748 63.0315 45.1867C65.6246 40.4389 66.8848 35.0787 66.6787 29.6736C66.8297 24.0347 65.4394 18.4614 62.6574 13.5531C60.0817 9.23805 56.3371 5.73907 51.856 3.46023C47.1852 1.12363 42.0226 -0.0619744 36.7995 0.00249537H0V99.1555H18.0023V58.5504H28.0556L29.0375 60.326L50.4065 99.1555H70.7935L46.7593 57.7094ZM43.5329 40.0469C39.9081 42.3964 35.6463 43.5713 31.3287 43.4111H25.1097C23.2328 43.4112 21.432 42.6693 20.1005 41.3475C18.7689 40.0256 18.0147 38.231 18.0023 36.3555V15.2352H31.469C35.7931 15.1298 40.0479 16.3353 43.6731 18.693C45.2995 19.942 46.5818 21.5834 47.3997 23.4632C48.2175 25.343 48.5442 27.3995 48.3491 29.44C48.5172 31.4716 48.1631 33.5124 47.3202 35.3688C46.4772 37.2252 45.1736 38.8355 43.5329 40.0469Z" fill="#788BF7"/>
</svg>
